src/svg/uf0ae-tasks.svg

<!-- Generated by IcoMoon.io -->
<svg version="1.1" xmlns="http://www.w3.org/2000/svg" width="32" height="32" viewBox="0 0 32 32">
<path d="M18.286 25.143h11.429v-2.286h-11.429v2.286zM11.429 16h18.286v-2.286h-18.286v2.286zM22.857 6.857h6.857v-2.286h-6.857v2.286zM32 21.714v4.571c0 0.625-0.518 1.143-1.143 1.143h-29.714c-0.625 0-1.143-0.518-1.143-1.143v-4.571c0-0.625 0.518-1.143 1.143-1.143h29.714c0.625 0 1.143 0.518 1.143 1.143zM32 12.571v4.571c0 0.625-0.518 1.143-1.143 1.143h-29.714c-0.625 0-1.143-0.518-1.143-1.143v-4.571c0-0.625 0.518-1.143 1.143-1.143h29.714c0.625 0 1.143 0.518 1.143 1.143zM32 3.429v4.571c0 0.625-0.518 1.143-1.143 1.143h-29.714c-0.625 0-1.143-0.518-1.143-1.143v-4.571c0-0.625 0.518-1.143 1.143-1.143h29.714c0.625 0 1.143 0.518 1.143 1.143z"></path>
</svg>

<svg xmlns="http://www.w3.org/2000/svg" width="32" height="32"><path d="M18.286 25.143h11.429v-2.286H18.286v2.286zM11.429 16h18.286v-2.286H11.429V16zm11.428-9.143h6.857V4.571h-6.857v2.286zM32 21.714v4.571c0 .625-.518 1.143-1.143 1.143H1.143A1.151 1.151 0 0 1 0 26.285v-4.571c0-.625.518-1.143 1.143-1.143h29.714c.625 0 1.143.518 1.143 1.143zm0-9.143v4.571c0 .625-.518 1.143-1.143 1.143H1.143A1.151 1.151 0 0 1 0 17.142v-4.571c0-.625.518-1.143 1.143-1.143h29.714c.625 0 1.143.518 1.143 1.143zm0-9.142V8c0 .625-.518 1.143-1.143 1.143H1.143A1.151 1.151 0 0 1 0 8V3.429c0-.625.518-1.143 1.143-1.143h29.714c.625 0 1.143.518 1.143 1.143z"/></svg>
